!!!OTL: GOTT IST DIE LIEBE
!!!ARE: Europa, Mitteleuropa, Deutschland
!!!SCT: F1032
!!!YEM: Copyright 1995, estate of Helmut Schaffrath.
**kern
*ICvox
*Ivox
*M2/4
*k[]
*C:
=1
{4e
8d
8c
=2
4B
8c
8r}
=3
{4f
8e
8d
=4
4c
8d}
{8e
=5
8f
8d
8c
8B
=6
4c
8r}
{8d
=7
4e
8d
8d
=8
4c
4r}
=9
{4d
8d
8d
=10
4e
8d
8r}
=11
{4B
8B
8B
=12
4c
8B}
{8B
=13
8A
8e
8d
8c
=14
4B
8r}
{8g
=15
8e
8c
8B
8A
=16
4G
4r}
=17
{4e
8d
8c
=18
4B
8c
8r}
=19
{4f
8e
8d
=20
4c
8d}
{8e
=21
8f
8d
8c
8B
=22
4c
8r}
{8d
=23
4e
8d
8d
=24
4c
4r}
==
!!!AGN: Erbauungs - Lied, religioes
!!!ONB: ESAC (Essen Associative Code) Database: FINK
!!!AMT: simple duple
!!!AIN: vox
!!!EED: Helmut Schaffrath
!!!EEV: 1.0
*-
